web/themes/custom/oh_my_pasta/images/icons/twitter.svg

<svg width="48" height="49" viewBox="0 0 48 49" fill="none" xmlns="http://www.w3.org/2000/svg">
<g clip-path="url(#clip0_1300_683)">
<rect y="0.333008" width="48" height="48" rx="8" fill="#004A36"/>
<g clip-path="url(#clip1_1300_683)">
<mask id="mask0_1300_683" style="mask-type:luminance" maskUnits="userSpaceOnUse" x="6" y="6" width="37" height="37">
<path d="M42.002 6.33398H6.00195V42.334H42.002V6.33398Z" fill="white"/>
</mask>
<g mask="url(#mask0_1300_683)">
<path d="M27.6591 21.9086C27.5227 21.7143 27.537 21.4518 27.6938 21.2735L40.0777 7.18784C40.3698 6.85557 40.1338 6.33398 39.6914 6.33398H37.8852C37.7373 6.33398 37.5966 6.39764 37.499 6.5087L26.4476 19.079C26.2277 19.3291 25.8318 19.3075 25.6405 19.035L16.8754 6.55272C16.7791 6.4156 16.622 6.33398 16.4545 6.33398H6.99151C6.57509 6.33398 6.33132 6.80303 6.57063 7.14382L19.824 26.0175C19.9605 26.2119 19.9461 26.4744 19.7894 26.6527L6.7527 41.4801C6.46056 41.8124 6.69649 42.334 7.13893 42.334H8.9454C9.09327 42.334 9.23399 42.2703 9.33163 42.1593L21.0353 28.8475C21.2552 28.5974 21.6511 28.619 21.8425 28.8915L31.1286 42.1153C31.2249 42.2524 31.3819 42.334 31.5494 42.334H41.0124C41.4288 42.334 41.6726 41.8649 41.4333 41.5242L27.6591 21.9086ZM23.0766 26.5249L21.6525 24.532L10.9032 9.48653C10.6601 9.14615 10.9034 8.67328 11.3217 8.67328H14.9356C15.1016 8.67328 15.2575 8.75347 15.354 8.88859L24.3441 21.4718L25.7682 23.4646L37.073 39.2874C37.3162 39.6278 37.0729 40.1006 36.6546 40.1006H33.0408C32.8747 40.1006 32.7189 40.0204 32.6223 39.8853L23.0766 26.5249Z" fill="white"/>
</g>
</g>
</g>
<defs>
<clipPath id="clip0_1300_683">
<rect width="48" height="48" fill="white" transform="translate(0 0.333008)"/>
</clipPath>
<clipPath id="clip1_1300_683">
<rect width="36" height="36" fill="white" transform="translate(6 6.33301)"/>
</clipPath>
</defs>
</svg>

<svg width="48" height="49" fill="none" xmlns="http://www.w3.org/2000/svg"><g clip-path="url(#clip0_1300_683)"><rect y=".333" width="48" height="48" rx="8" fill="#004A36"/><g clip-path="url(#clip1_1300_683)"><mask id="a" style="mask-type:luminance" maskUnits="userSpaceOnUse" x="6" y="6" width="37" height="37"><path d="M42.002 6.334h-36v36h36v-36z" fill="#fff"/></mask><g mask="url(#a)"><path d="M27.66 21.909a.514.514 0 01.034-.636L40.078 7.188a.514.514 0 00-.387-.854h-1.806a.514.514 0 00-.386.175l-11.051 12.57a.514.514 0 01-.808-.044L16.875 6.553a.514.514 0 00-.42-.219H6.992a.514.514 0 00-.421.81l13.253 18.873a.514.514 0 01-.035.636L6.753 41.48a.514.514 0 00.386.854h1.806a.514.514 0 00.387-.175l11.703-13.311a.514.514 0 01.808.044l9.286 13.223a.514.514 0 00.42.219h9.463c.417 0 .66-.47.421-.81L27.66 21.91zm-4.583 4.616l-1.425-1.993L10.903 9.487a.514.514 0 01.419-.814h3.614c.166 0 .322.08.418.216l8.99 12.583 1.424 1.993 11.305 15.822c.243.34 0 .814-.418.814H33.04a.514.514 0 01-.419-.216l-9.545-13.36z" fill="#fff"/></g></g></g><defs><clipPath id="clip0_1300_683"><path fill="#fff" transform="translate(0 .333)" d="M0 0h48v48H0z"/></clipPath><clipPath id="clip1_1300_683"><path fill="#fff" transform="translate(6 6.333)" d="M0 0h36v36H0z"/></clipPath></defs></svg>
